icons/svg/script.svg

﻿<?xml version="1.0" encoding="utf-8"?>
<!DOCTYPE svg PUBLIC "-//W3C//DTD SVG 1.1//EN" "http://www.w3.org/Graphics/SVG/1.1/DTD/svg11.dtd">
<svg xmlns="http://www.w3.org/2000/svg" xmlns:xlink="http://www.w3.org/1999/xlink" version="1.1" baseProfile="full" width="24" height="24" viewBox="0 0 24.00 24.00" enable-background="new 0 0 24.00 24.00" xml:space="preserve">
	<path fill="#000000" fill-opacity="1" stroke-width="0.2" stroke-linejoin="round" d="M 14,20C 15.1046,20 16,19.1046 16,18L 16,5L 9,4.99999C 8.44771,5 8,5.44771 8,5.99999L 8,16L 5,16L 5,5.00001C 5,3.34316 6.34319,2.00001 8.00004,2.00001L 19,2.00001C 20.6568,2.00001 22,3.34316 22,5.00001L 22,6L 18,6L 18,18L 18,19C 18,20.6569 16.6568,22 15,22L 5,22C 3.34315,22 2,20.6569 2,19L 2,18L 12,18C 12,19.1046 12.8954,20 14,20 Z "/>
</svg>

<svg xmlns="http://www.w3.org/2000/svg" version="1.1" baseProfile="full" width="24" height="24" viewBox="0 0 24.00 24.00" xml:space="preserve"><path fill="#000" fill-opacity="1" stroke-width=".2" stroke-linejoin="round" d="M14 20c1.105 0 2-.895 2-2V5H9c-.552 0-1 .448-1 1v10H5V5c0-1.657 1.343-3 3-3h11c1.657 0 3 1.343 3 3v1h-4v13c0 1.657-1.343 3-3 3H5c-1.657 0-3-1.343-3-3v-1h10c0 1.105.895 2 2 2z"/></svg>
